assets/img/braze_icons/bell-ringing-02.svg

<svg fill="none" height="24" viewBox="0 0 24 24" width="24" xmlns="http://www.w3.org/2000/svg"><g clip-rule="evenodd" fill="#801ed7" fill-rule="evenodd"><path d="m9.00005 21c0-.5523.44772-1 1.00005-1h4c.5522 0 1 .4477 1 1s-.4478 1-1 1h-4c-.55233 0-1.00005-.4477-1.00005-1z"/><path d="m5.19703 1.80858c.2714.481.10149 1.09094-.37951 1.36234-.94676.53421-1.53442 1.55206-1.52367 2.63909.00546.55226-.43781 1.00437-.99007 1.00983s-1.00438-.4378-1.00984-.99006c-.01794-1.81567.95936-3.50842 2.54075-4.40071.481-.2714 1.09094-.10149 1.36234.37951z"/><path d="m18.7991 1.80859c.2714-.481.8814-.65091 1.3624-.37951 1.5814.89229 2.5587 2.58504 2.5407 4.4007-.0054.55226-.4576.99553-1.0098.99007-.5523-.00546-.9955-.45758-.9901-1.00984.0108-1.08702-.5769-2.10487-1.5237-2.63908-.481-.2714-.6509-.88134-.3795-1.36234z"/><path d="m7.05031 3.05025c1.31275-1.31275 3.09319-2.05025 4.94979-2.05025 1.8565 0 3.6369.7375 4.9497 2.05025 1.3128 1.31276 2.0503 3.09324 2.0503 4.94975 0 2.9127.732 4.8439 1.4993 6.0771l.0119.0191c.3573.5742.6397 1.0281.8302 1.3585.0954.1655.1823.325.2467.4668.0321.0707.068.1575.0961.2518.0233.0782.0677.2454.0511.449-.0112.1368-.0391.3705-.1732.612-.1342.2415-.3179.3887-.4282.4704-.2502.1857-.5377.2282-.6336.2423l-.0044.0007c-.1474.0218-.3147.0327-.4835.0392-.3352.0131-.7994.0131-1.3766.0131h-13.2717c-.57722 0-1.04136 0-1.37662-.0131-.16875-.0065-.33603-.0174-.48344-.0392l-.00443-.0007c-.09593-.0141-.38336-.0566-.63365-.2423-.11024-.0817-.29397-.2289-.42812-.4704s-.16204-.4752-.17323-.612c-.01665-.2036.02775-.3708.05106-.449.02809-.0943.06403-.1811.09616-.2518.06436-.1418.1513-.3013.24672-.4668.19042-.3304.4729-.7844.83023-1.3586l.01179-.019c.76738-1.2332 1.49938-3.1644 1.49938-6.0771 0-1.85652.7375-3.63699 2.05026-4.94975z"/></g></svg>

<svg width="24" height="24" viewBox="0 0 24 24" fill="none" xmlns="http://www.w3.org/2000/svg">
<path fill-rule="evenodd" clip-rule="evenodd" d="M9.00005 21C9.00005 20.4477 9.44777 20 10.0001 20H14.0001C14.5523 20 15.0001 20.4477 15.0001 21C15.0001 21.5523 14.5523 22 14.0001 22H10.0001C9.44777 22 9.00005 21.5523 9.00005 21Z" fill="#801ED7"/>
<path fill-rule="evenodd" clip-rule="evenodd" d="M5.19703 1.80858C5.46843 2.28958 5.29852 2.89952 4.81752 3.17092C3.87076 3.70513 3.2831 4.72298 3.29385 5.81001C3.29931 6.36227 2.85604 6.81438 2.30378 6.81984C1.75152 6.8253 1.2994 6.38204 1.29394 5.82978C1.276 4.01411 2.2533 2.32136 3.83469 1.42907C4.31569 1.15767 4.92563 1.32758 5.19703 1.80858Z" fill="#801ED7"/>
<path fill-rule="evenodd" clip-rule="evenodd" d="M18.7991 1.80859C19.0705 1.32759 19.6805 1.15768 20.1615 1.42908C21.7429 2.32137 22.7202 4.01412 22.7022 5.82978C22.6968 6.38204 22.2446 6.82531 21.6924 6.81985C21.1401 6.81439 20.6969 6.36227 20.7023 5.81001C20.7131 4.72299 20.1254 3.70514 19.1786 3.17093C18.6976 2.89953 18.5277 2.28959 18.7991 1.80859Z" fill="#801ED7"/>
<path fill-rule="evenodd" clip-rule="evenodd" d="M7.05031 3.05025C8.36306 1.7375 10.1435 1 12.0001 1C13.8566 1 15.637 1.7375 16.9498 3.05025C18.2626 4.36301 19.0001 6.14349 19.0001 8C19.0001 10.9127 19.7321 12.8439 20.4994 14.0771L20.5113 14.0962C20.8686 14.6704 21.151 15.1243 21.3415 15.4547C21.4369 15.6202 21.5238 15.7797 21.5882 15.9215C21.6203 15.9922 21.6562 16.079 21.6843 16.1733C21.7076 16.2515 21.752 16.4187 21.7354 16.6223C21.7242 16.7591 21.6963 16.9928 21.5622 17.2343C21.428 17.4758 21.2443 17.623 21.134 17.7047C20.8838 17.8904 20.5963 17.9329 20.5004 17.947L20.496 17.9477C20.3486 17.9695 20.1813 17.9804 20.0125 17.9869C19.6773 18 19.2131 18 18.6359 18H5.3642C4.78698 18 4.32284 18 3.98758 17.9869C3.81883 17.9804 3.65155 17.9695 3.50414 17.9477L3.49971 17.947C3.40378 17.9329 3.11635 17.8904 2.86606 17.7047C2.75582 17.623 2.57209 17.4758 2.43794 17.2343C2.30379 16.9928 2.2759 16.7591 2.26471 16.6223C2.24806 16.4187 2.29246 16.2515 2.31577 16.1733C2.34386 16.079 2.3798 15.9922 2.41193 15.9215C2.47629 15.7797 2.56323 15.6202 2.65865 15.4547C2.84907 15.1243 3.13155 14.6703 3.48888 14.0961L3.50067 14.0771C4.26805 12.8439 5.00005 10.9127 5.00005 8C5.00005 6.14348 5.73755 4.36301 7.05031 3.05025Z" fill="#801ED7"/>
</svg>
